X:3979
T:Maol D\onaidh
T:A Song for Attracting the Seals
O:england
M:6/8
L:1/8
K:D
Bdd dBA | dBA | dBA dBA | Bdd dBA | e2 d e3 :|:
g2 f g2 a | e2 d e3 | g2 f g2 a | e2 d e3 | a2 e g2 d | e2 d BAG | Bdd d
BA | dBA dBA | Bdd dBA | e2 d e3 :||
